assets/icons/qvision/memory.svg

<svg xmlns="http://www.w3.org/2000/svg" height="24" viewBox="0 0 24 24" width="24"><path d="M0 0h24v24H0z" fill="none"/><path d="M15 9H9v6h6V9zm-2 4h-2v-2h2v2zm8-2V9h-2V7c0-1.1-.9-2-2-2h-2V3h-2v2h-2V3H9v2H7c-1.1 0-2 .9-2 2v2H3v2h2v2H3v2h2v2c0 1.1.9 2 2 2h2v2h2v-2h2v2h2v-2h2c1.1 0 2-.9 2-2v-2h2v-2h-2v-2h2zm-4 6H7V7h10v10z"/></svg>

<svg width="24" height="24" viewBox="0 0 24 24" fill="none" xmlns="http://www.w3.org/2000/svg">
<g clip-path="url(#clip0_147_3023)">
<path d="M15 9H9V15H15V9ZM13 13H11V11H13V13ZM21 11V9H19V7C19 5.9 18.1 5 17 5H15V3H13V5H11V3H9V5H7C5.9 5 5 5.9 5 7V9H3V11H5V13H3V15H5V17C5 18.1 5.9 19 7 19H9V21H11V19H13V21H15V19H17C18.1 19 19 18.1 19 17V15H21V13H19V11H21ZM17 17H7V7H17V17Z" fill="#323232"/>
</g>
<defs>
<clipPath id="clip0_147_3023">
<rect width="24" height="24" fill="white"/>
</clipPath>
</defs>
</svg>
